build/img/sprites/whatsapp-fill.svg

<svg width="14" height="14" viewBox="0 0 14 14" fill="none" xmlns="http://www.w3.org/2000/svg">
<path d="M7.00082 1.16675C10.2226 1.16675 12.8342 3.77833 12.8342 7.00008C12.8342 10.2218 10.2226 12.8334 7.00082 12.8334C5.96993 12.8352 4.95716 12.5624 4.06666 12.043L1.16982 12.8334L1.95849 9.93541C1.43872 9.04462 1.16568 8.03142 1.16749 7.00008C1.16749 3.77833 3.77907 1.16675 7.00082 1.16675ZM5.01282 4.25841L4.89616 4.26308C4.82073 4.26828 4.74703 4.28809 4.67916 4.32141C4.61591 4.3573 4.55815 4.40209 4.50766 4.45441C4.43766 4.52033 4.39799 4.5775 4.35541 4.63291C4.13964 4.91344 4.02347 5.25785 4.02524 5.61175C4.02641 5.89758 4.10107 6.17583 4.21774 6.436C4.45632 6.96216 4.84891 7.51925 5.36691 8.0355C5.49174 8.15975 5.61424 8.28458 5.74607 8.40066C6.38974 8.96732 7.15674 9.37598 7.98607 9.59416L8.31741 9.64491C8.42532 9.65075 8.53324 9.64258 8.64174 9.63733C8.8116 9.62837 8.97744 9.58238 9.12766 9.50258C9.20398 9.46312 9.27853 9.4203 9.35107 9.37425C9.35107 9.37425 9.37577 9.35752 9.42399 9.32175C9.50274 9.26341 9.55116 9.222 9.61649 9.15375C9.66549 9.10319 9.70632 9.04447 9.73899 8.97758C9.78449 8.8825 9.82999 8.70108 9.84866 8.55C9.86266 8.4345 9.85857 8.3715 9.85682 8.33241C9.85449 8.27 9.80257 8.20525 9.74599 8.17783L9.40649 8.02558C9.40649 8.02558 8.89899 7.8045 8.58866 7.66333C8.55617 7.64919 8.52138 7.64108 8.48599 7.63941C8.44607 7.63524 8.40573 7.63969 8.36768 7.65247C8.32964 7.66526 8.29479 7.68607 8.26549 7.7135C8.26257 7.71233 8.22349 7.74558 7.80174 8.25658C7.77753 8.28911 7.74419 8.31369 7.70596 8.3272C7.66773 8.3407 7.62634 8.34252 7.58707 8.33241C7.54905 8.32228 7.51182 8.30942 7.47566 8.29391C7.40332 8.26358 7.37824 8.25191 7.32866 8.23091C6.99375 8.08503 6.68375 7.88761 6.40991 7.64583C6.33641 7.58166 6.26816 7.51166 6.19816 7.444C5.96868 7.2242 5.76868 6.97557 5.60316 6.70433L5.56874 6.64891C5.54439 6.61146 5.52443 6.57134 5.50924 6.52933C5.48707 6.44358 5.54482 6.37475 5.54482 6.37475C5.54482 6.37475 5.68657 6.21958 5.75249 6.13558C5.81666 6.05391 5.87091 5.97458 5.90591 5.918C5.97474 5.80716 5.99632 5.69341 5.96016 5.60533C5.79682 5.20633 5.62804 4.80947 5.45382 4.41475C5.41941 4.33658 5.31732 4.28058 5.22457 4.2695C5.19307 4.26561 5.16157 4.2625 5.13007 4.26016C5.05175 4.25567 4.97321 4.25645 4.89499 4.2625L5.01282 4.25841Z" fill="white"/>
</svg>

<svg width="14" height="14" viewBox="0 0 14 14" fill="none" xmlns="http://www.w3.org/2000/svg"><path d="M7 1.167a5.833 5.833 0 11-2.933 10.876l-2.897.79.788-2.898A5.833 5.833 0 017 1.166zM5.014 4.258l-.117.005a.583.583 0 00-.217.058.759.759 0 00-.171.133c-.07.066-.11.123-.153.179-.215.28-.332.625-.33.979.001.286.076.564.193.824.238.526.63 1.083 1.149 1.6.125.124.247.249.38.365.643.566 1.41.975 2.24 1.193l.33.05c.108.007.216-.001.325-.007.17-.009.335-.055.486-.134.076-.04.15-.083.223-.129 0 0 .025-.016.073-.052.079-.059.127-.1.192-.168a.68.68 0 00.123-.176 1.66 1.66 0 00.11-.428c.014-.116.01-.179.008-.218-.003-.062-.054-.127-.111-.154l-.34-.152s-.507-.221-.817-.363a.292.292 0 00-.103-.024.28.28 0 00-.22.074c-.003 0-.043.033-.464.544a.204.204 0 01-.215.075.815.815 0 01-.111-.038c-.073-.03-.098-.042-.147-.063a3.5 3.5 0 01-.92-.585c-.073-.064-.14-.134-.21-.202-.23-.22-.43-.468-.596-.74L5.57 6.65a.583.583 0 01-.06-.12c-.022-.085.036-.154.036-.154s.142-.155.207-.24a2.21 2.21 0 00.154-.217c.069-.11.09-.225.054-.313a47.743 47.743 0 00-.506-1.19c-.035-.078-.137-.134-.23-.146a1.75 1.75 0 00-.33-.007l.119-.004z" fill="#fff"/></svg>
